X:353
T:B353-  On then Bank of a Brook
Q:1/4=120
L:1/4
M:3/4
K:Gm
g3/2g/a|f3/2e/d|cB3/2A/|BG2|\
BA3/2d/|^cde|f=e3/2d/|d3|\
^ff3/2f/|g3/2a/g|ff3/2=e/|ff2|\
ee3/2f/|d3/2d/e|dc3/2B/|B2":s:"b|\
ag/f/g|fdc|d3/2d/=e|f3|\
g2c|d2(B/A/)|BA3/2G/|G3|]
